X: 1
T:Wenlock Edge
M:3/4
L:1/4
C:trad
R:waltz
Z: Tim Willets <tlw:redowa.co.uk> tradtunes 2003-10-22
K:D
f/g/ \
| "D"a>fd | d2f | "G"B2d | "D(A7)"A2f/g/ | "D"a2a | "G"bag | "D"fed | "A"e2A |
| "G"BB/c/d | "A"cde | "D"dd/e/f | "A"efg | "D"a>fd | "Em"eB"A"c | "D"df"A"e | "D"d2 :|
|: d \
| "A"c>de | "A"efg | "D"agf | "A"e3e | "A"c>de | "A"efg | "D"agf | "A"e2 a |
| "D"f/g/aa | "A"eaa | "D (Bm)"d/e/ff | "A(Em)"efg | "D"a>fd | "Em"eB"A"c | "D"df"A"e | "D"d2 :|
